files/icons/tg.svg

<svg width="45" height="38" viewBox="0 0 45 38" fill="none" xmlns="http://www.w3.org/2000/svg">
<path d="M41.0557 0.344537C41.0557 0.344537 45.2076 -1.27442 44.8616 2.65734C44.7463 4.27632 43.7083 9.94268 42.901 16.0716L40.133 34.2272C40.133 34.2272 39.9024 36.8869 37.8264 37.3495C35.7504 37.812 32.6365 35.7305 32.0598 35.2679C31.5985 34.921 23.4101 29.7172 20.5267 27.1731C19.7194 26.4793 18.7967 25.0916 20.642 23.4726L32.7518 11.9086C34.1358 10.5209 35.5198 7.28299 29.7532 11.2148L13.6069 22.2006C13.6069 22.2006 11.7616 23.357 8.30169 22.3162L0.805121 20.0034C0.805121 20.0034 -1.96283 18.2688 2.76575 16.5341C14.2989 11.099 28.4846 5.5483 41.0557 0.344537Z" fill="#FAE5D1"/>
</svg>

<svg width="45" height="38" fill="none" xmlns="http://www.w3.org/2000/svg">
  <path d="M41.056.345s4.152-1.62 3.806 2.312c-.116 1.62-1.154 7.286-1.961 13.415l-2.768 18.155s-.23 2.66-2.307 3.123c-2.076.462-5.19-1.62-5.766-2.082-.462-.347-8.65-5.55-11.533-8.095-.808-.694-1.73-2.081.115-3.7l12.11-11.564c1.384-1.388 2.768-4.626-2.999-.694L13.607 22.2s-1.845 1.156-5.305.115L.805 20.003s-2.768-1.734 1.96-3.469C14.3 11.1 28.486 5.548 41.056.344Z" fill="#FAE5D1"/>
</svg>
